icon/lg/microsoft-windows.svg

<?xml version="1.0" encoding="UTF-8" standalone="no"?>
<svg viewBox="0 0 256 257" version="1.1" xmlns="http://www.w3.org/2000/svg" xmlns:xlink="http://www.w3.org/1999/xlink" preserveAspectRatio="xMidYMid" height="1em" width="1em">
  <g>
    <path d="M0,36.3573818 L104.619084,22.1093454 L104.664817,123.02292 L0.0955693151,123.618411 L0,36.3573818 Z M104.569248,134.650129 L104.650452,235.651651 L0.0812046021,221.274919 L0.0753414539,133.972642 L104.569248,134.650129 Z M117.25153,20.2454506 L255.967753,6.21724894e-15 L255.967753,121.739477 L117.25153,122.840723 L117.25153,20.2454506 Z M256,135.599959 L255.96746,256.791232 L117.251237,237.213007 L117.056874,135.373055 L256,135.599959 Z" fill="#00ADEF"/>
  </g>
</svg>

<svg width="256" height="257" xmlns="http://www.w3.org/2000/svg" preserveAspectRatio="xMidYMid"><path d="M0 36.357 104.62 22.11l.045 100.914-104.57.595L0 36.358Zm104.57 98.293.08 101.002L.081 221.275l-.006-87.302 104.494.677Zm12.682-114.405L255.968 0v121.74l-138.716 1.1V20.246ZM256 135.6l-.033 121.191-138.716-19.578-.194-101.84L256 135.6Z" fill="#00ADEF"/></svg>
